X:1
T: Money Musk
P:Ryan's version
R:Reel
Q: 232
K:A
M:4/4
L:1/8
f |\
eA cA eA df | eA cA Bc df | eA cA cd ea | fd Be cA Af |
eA cA eA df | eA cA Bc df | eA cA cd ea | fd Bd cA Ag |
ae fa ea ca | ae db ca Bg | ae fa ea ca | fd Bd cA Ag |
ae fa ea ca | ae db ca Bg | ae fa ea ca | fd Bd cA A((3e/f/g/) |
ac ea e'a ba | gB eg be fg | ac ea c'a ba | gf dB A2 ((3efg) |
ac ea e'a ba | gB eg be fg | ac ea c'a ba | gf dB A2 ((3efg) |
ac' ea c'e e'e | gb eg be d'e | ac' ea c'e e'e | gb eg a2 ((3efg) |
ac' ea c'e e'e | gb eg be d'e | ac' ea c'e e'e | gb eg a3 ||
